X:10601
T:Jack Warrel's Hornpipe
R:Slipjig
C:in Thomas Marsden, 1705
O:England, Lancashire
Z:Paul Hardy's Possible Tunebook 2022 (see www.paulhardy.net). Creative Commons cc by-nc-sa licenced.
M:9/4
L:1/4
Q:3/4=80
K:Ddor
%%MIDI beatstring fmpfmpfmp
%%MIDI gchord ccfccfccf
|:"F"A2 B c B A "G"B A G | "F"A F A "G"B A G "Dm"F2 D | "G"B2 c d c B "Am"c B A | "G"B A G G A B "Dm"A2 G :|
|:"F"F3/ G/A/B/ c B A "G"B A G | "F"A F A "G"B c/B/A/G/ "Dm"F2D | "G" G3/A/B/c/d c B "C"c B A | "G"B A G G A B "Dm"A2 G :|
|:"F"c A F F c F "G"B A G | "F"A F A "G"B A G "Dm"F2 D | "G"d B G G d G "Dm"A F  D |  "G"B A G G A B "Dm"A2 G :|
|: "F"f2 f f c f "C"e2 d | "F"c A A A2 G "Dm"F2 D | "G"g2 g g G g "Dm"f3/ e/ f | "G"e/`f/ g G G A B "Dm"A2 G :|

